X: 3
T: Reel Beatrice
R: reel
M: 4/4
L: 1/8
K: Bmin
~D2BD F2DF|BFFE F2 Bc|d2Bd ~f2df|bffe f2bc'| d'c'ba gfed|ceed e3e|f~f2g fedc|1 dBBA ~B3c:|2 dBBA Bcdf||b2gb c'g~g2|gf^ef b3g|f2^ef gff=e|dedc Bcdf|b2gb c'g~g2|gf^ef b3g|f~f2g fedc|1dB~B2 Bcdf:|2 B4 A2Bc||dA~A2 FAdf|dA~A2 FAdf|ec{d}c{B}c Acec|defb agfe|dA~A2 FAdf|dA~A2 FAdf|ec{d}c{B}c Acec|1 dcde dABc:|2 dcde d2Bc||


Tune 483	Setting 13392

